!!!!SEGMENT: pl-sa--33-a-i-33_kaminski-f--zori-ex-b.krn
!!!cenid: 17xx:356
!!!COM: Kamiński, F.
!!!COM-rismid: pe41022861
!!!CDT:
!!!CNT:
!!!OTL: Zori ex B
!!!PDT:
!!!AGN:
!!!SMS-siglum: PL-SA
!!!SMS-shelfmark: 33/A I 33
!!!SMS-shelfwork: W
!!!NIFC-rismid: 1001077274
!!!URL-scan: http://bc.bdsandomierz.pl/dlibra/publication/1266/edition/1234/content
!!!ONB-nifc:
**kern	**dynam	**kern	**dynam	**kern	**dynam	**kern	**kern	**dynam	**kern	**dynam	**kern	**dynam
*part7	*part7	*part6	*part6	*part5	*part5	*part4	*part3	*part3	*part2	*part2	*part1	*part1
*staff7	*	*staff6	*	*staff5	*	*staff4	*staff3	*	*staff2	*	*staff1	*
*Iempty	*	*Ivioln	*	*Ivioln	*	*Iempty	*Icor	*	*Iclars	*	*Iclars	*
*I"Baſſo:	*	*I"Violino 2.do	*	*I"Violino Primo:	*	*	*I"Corni Ex. B.	*	*I"Clarinetto 2:do.	*	*I"Clarinetto: Primo:	*
*I'b	*	*I'vl 2	*	*I'vl 1	*	*	*I'cor in B♭	*	*I'cl 2	*	*I'cl 1	*
*clefF4	*	*clefG2	*	*clefG2	*	*clefG2	*clefG2	*	*clefG2	*	*clefG2	*
*	*	*	*	*	*	*ITrd1c2	*ITrd1c2	*	*ITrd1c2	*	*ITrd1c2	*
*k[b-e-]	*	*k[b-e-]	*	*k[b-e-]	*	*k[b-e-]	*k[b-e-]	*	*k[b-e-]	*	*k[b-e-]	*
*B-:	*	*B-:	*	*B-:	*	*B-:	*B-:	*	*B-:	*	*B-:	*
*M2/4	*	*M2/4	*	*M2/4	*	*M2/4	*M2/4	*	*M2/4	*	*M2/4	*
=1	=1	=1	=1	=1	=1	=1	=1	=1	=1	=1	=1	=1
!	!	!LO:TX:a:t=P:problem: w nazwie głosu "do." w indeksie górnym	!	!LO:TX:b:i:B:t=Zori	!	!	!LO:TX:a:t=P:problem: "Zori" na pięciolini przed akoladą, "Allo Mod." pod pięciolinią przed akoladą	!LO:HP:b:i:t=f.	!	!	!	!
!LO:SIC:o=8.BB	!	!	!	!LO:TX:b:t=P:problem: napis Zori na pięciolini przed kluczem	!	!	!LO:TX:a:i:t=Zori\n All(egr)o Mod(erato).	!	!LO:TX:a:t=P:problem: w nazwie głosu "do." w indeksie górnym	!	!	!
!LO:TX:i:a:t=Zori\n All(egr)o Mod(erato).	!	!LO:TX:a:t=P:problem: oznaczenie tempa na pięciolinii przed kluczem	!	!LO:TX:a:i:t=Zori\nAll(egr)o Moderato	!	!LO:TX:a:t=P:problem: partia zapisana równolegle z partią Corni Ex. B w systemie dwupięcioliniowym połączonym akoladą	!LO:TX:a:t=P:problem: rogi zapisane równolegle w systemie dwupięciolinowym połączonym akoladą	!	!LO:TX:a:i:t=Zori All(egr)o\n Mod(erato).	!	!LO:TX:a:i:t=Z ori\n All(egr)o Mod(erato).	!
!LO:TX:a:t=P:problem: oznaczenie tempa na pięciolinii przed kluczem	!	!LO:TX:a:i:t=Zori\n All(egr)o Mod(erato).	!LO:HP:b:i:t=f.	!LO:TX:a:t=P:problem: oznaczenie tempa nad pięciolinią przed kluczem	!	!	!LO:TX:a:t=P:problem: oznaczenia dynamiczne i tempa dotyczą najpewniej partii obu rogów	!	!LO:TX:a:t=P:problem: oznaczenie tempa na pięciolinii przed kluczem	!	!LO:TX:a:t=P:problem: oznaczenie tempa na pięciolinii przed kluczem	!
!	!	!	!LO:HP:b:i:t=f.	!	!	!	!	!	!	!	!	!
!	!	!	!LO:DY:b:rj	!	!	!	!	!LO:HP:a:t=f.	!	!	!	!
8BB-\L	.	8B-/L 8f 8dd	f	8f/L 8dd 8bb-	.	8B-/L	8b-\L	f	8dd\L	.	8aa\L	.
!	!LO:HP:b:i:t=f.	!	!	!	!	!	!	!	!	!	!	!
16r	f	16r	.	16r	.	16r	16r	.	16r	.	16r	.
16B-\Jk	.	16dd/Jk	.	16ff/Jk	.	16B-/Jk	16b-\Jk	.	16dd\Jk	.	16ff\Jk	.
!LO:SIC:o=8.FF	!	!	!	!	!	!	!	!	!	!	!	!
8F\L	.	8dd\L	.	8ff\L	.	8B-/L	8b-\L	.	8ff\L	.	8ff\L	.
16r	.	16r	.	16r	.	16r	16r	.	16r	.	16r	.
16D\Jk	.	16b-\Jk	.	16dd\Jk	.	16B-/Jk	16b-\Jk	.	16dd\Jk	.	16dd\Jk	.
=2	=2	=2	=2	=2	=2	=2	=2	=2	=2	=2	=2	=2
!	!	!	!	!	!LO:HP:b:B:i:t=p.	!	!	!LO:HP:b:i:t=p.	!	!	!	!
8BB-/L	.	16d/LL	.	16b-\LL	p	8B-/L	8b-\L	p	4b-\	.	16b-\LL	.
.	.	32f/L	.	32dd\L	.	.	.	.	.	.	32dd\L	.
.	.	32e-/JJJ	.	32cc\JJJ	.	.	.	.	.	.	32cc\JJJ	.
!	!LO:HP:b:i:t=p.	!	!	!	!	!	!	!	!	!	!	!
!	!LO:DY:b:rj	!	!	!	!	!	!	!	!	!	!	!
8BB-/	p	16d/LL	.	16b-\LL	.	8B-/	8b-\	.	.	.	16b-\LL	.
!	!	!	!	!	!	!	!	!	!	!	!LO:TX:b:i:t=dol&colon;	!
.	.	16d/JJ	.	16b-\JJ	.	.	.	.	.	.	16b-\JJ	.
8BB-/J	.	16d/LL	.	16b-\LL	.	8B-/J	8b-\J	.	16r	.	16b-\LL	.
.	.	(<16a/	.	(>16cc\	.	.	.	.	(>16a\LL	.	(>16cc\	.
8r	.	16cc/	.	16ee-\	.	8r	8r	.	16cc\	.	16ee-\	.
.	.	16b-/JJ)	.	16dd\JJ)	.	.	.	.	16b-\JJ)	.	16dd\JJ)	.
=3	=3	=3	=3	=3	=3	=3	=3	=3	=3	=3	=3	=3
!LO:TX:a:t=P:problem:mixed beam	!	!	!	!	!	!	!	!	!	!	!	!
8BB-/L	.	16b-\LL	.	16dd\L	.	8B-/L	8b-\L	.	16b-\LL	.	16dd\LL	.
.	.	32dd\L	.	32ff\	.	.	.	.	(>32dd\L	.	(>32ff\L	.
.	.	32cc\JJJ	.	32ee-\J	.	.	.	.	32cc\JJJ)	.	32ee-\JJJ)	.
8B-\	.	16b-\LL	.	16dd\L	.	8B-/	8b-\	.	16b-\LL	.	16dd\LL	.
.	.	16b-\JJ	.	16dd\J	.	.	.	.	16b-\JJ	.	16dd\JJ	.
8BB-/J	.	16b-\LL	.	16dd\L	.	8B-/J	8b-\J	.	(>16b-\LL	.	16dd\LL	.
.	.	(>16cc\	.	(>16ee-\	.	.	.	.	16cc\	.	(>16ee-\	.
8r	.	16ee-\)	.	16gg\	.	8r	8r	.	16ee-\	.	16gg\	.
.	.	16dd\JJ	.	16ff\J)	.	.	.	.	16dd\JJ)	.	16ff\JJ)|	.
=4	=4	=4	=4	=4	=4	=4	=4	=4	=4	=4	=4	=4
!LO:TX:a:t=P:problem:mixed beam	!LO:HP:b:i:t=f.	!	!	!	!	!	!	!LO:HP:b:i:t=f.	!	!	!	!
16BB-/LL	f	8.dd\L	.	8.ff\L	.	4B-/	4b-\	f	8.dd\L	.	8.ff\L	.
16B-\	.	.	.	.	.	.	.	.	.	.	.	.
16A\	.	.	.	.	.	.	.	.	.	.	.	.
!	!	!	!LO:HP:b:i:t=for	!	!	!	!	!	!	!	!	!
16B-\JJ	.	(>32ee-\LL	f	(>32gg\LL	.	.	.	.	(>32ee-\LL	.	(>32gg\LL	.
.	.	32ff\JJJ)	.	32aa\JJJ)	.	.	.	.	32ff\JJJ)	.	32aa\JJJ)	.
!	!	!	!	!	!LO:HP:b:i:t=f.	!	!	!	!	!	!	!
8BB-/	.	16gg\LL	.	16bb-\LL	f	8r	8r	.	16gg\LL	.	16bb-\LL	.
.	.	(>16ff\	.	(>16aa\	.	.	.	.	16ff\	.	16aa\	.
!	!	!	!	!	!	!	!LO:TX:a:t=P:problem: pojedyncze ósemki i szesnastki z laską w dół mają chorągiewkę z lewej strony laski	!	!	!	!	!
8r	.	16ee-\	.	16gg\)	.	8B-/	8b-\	.	(>16ee-\	.	(>16gg\	.
.	.	16dd\JJ)	.	16ff\JJ	.	.	.	.	16dd\JJ)	.	16ff\JJ)	.
=5	=5	=5	=5	=5	=5	=5	=5	=5	=5	=5	=5	=5
!LO:TX:a:t=P:problem:mixed beam	!	!	!	!	!	!	!	!	!	!	!	!
8F\L	.	(>16cc\LL	.	16ee-\LL	.	8f/L	8cc\L	.	16cc\LL	.	16ee-\LL	.
.	.	16b-\	.	(>16dd\	.	.	.	.	(>16b-\	.	(>16dd\	.
8FF/	.	16a\	.	16cc\	.	16f/L	16cc\L	.	16a\	.	16cc\	.
.	.	16b-\JJ)	.	16dd\JJ)	.	16f/JJ	16cc\JJ	.	16b-\JJ)	.	16dd\JJ)	.
!	!	!LO:TX:a:t=P:problem: pojedyncze ósemki i szesnastki z laską w dół mają chorągiewkę z lewej strony laski	!	!LO:TX:a:t=P:problem: pojedyncze ósemki i szesnastki z laską w dół mają chorągiewkę z lewej strony laski	!	!	!	!	!LO:TX:a:t=P:problem: pojedyncze ósemki i szesnastki z laską w dół mają zawsze chorągiewkę z lewej strony laski	!	!LO:TX:a:t=P:problem: pojedyncze ósemki i szesnastki z laską w dół mają chorągiewkę z lewej strony	!
8BB-/J	.	8b-\	.	8b-\	.	4B-/	8b-\	.	8b-\	.	8b-\	.
8r	.	8r	.	8r	.	.	8r	.	8r	.	8r	.
!LO:TX:a:t=P:problem: nad znakiem obustronnej repetycji adnotacja "2"	!	!	!	!	!	!	!	!	!	!	!	!
=6:|!|:	=6:|!|:	=6:|!|:	=6:|!|:	=6:|!|:	=6:|!|:	=6:|!|:	=6:|!|:	=6:|!|:	=6:|!|:	=6:|!|:	=6:|!|:	=6:|!|:
!LO:TX:a:t=P:problem:mixed beam	!LO:DY:a	!	!LO:HP:b:i:t=p.	!	!	!	!	!	!	!	!	!
!	!LO:HP:a:i:t=p.	!	!LO:HP:a:i:t=p.	!	!	!	!	!	!	!	!	!
8F\L	p	(>16a\LL	p	(>16cc\LL	.	8f/L	8cc\L	.	(>16a\LL	.	(>16cc\LL	.
.	.	16b-\	.	16dd\	.	.	.	.	16b-\	.	16dd\	.
!	!	!	!	!	!LO:HP:b:i:t=f.	!	!	!	!	!	!	!
8FF/	.	16cc\	.	16ee-\)	f	16f/L	16cc\L	.	16cc\)	.	16ee-\	.
.	.	16a\JJ)	.	16cc\JJ	.	16f/JJ	16cc\JJ	.	16a\JJ	.	16cc\JJ)	.
!	!LO:DY:a	!	!	!	!	!LO:TX:a:t=P:problem: pojedyncze ósemki i szesnastki z laską w dół mają chorągiewkę z lewej strony laski	!	!	!	!	!LO:LB:g=original	!
!	!LO:HP:a:i:t=f.	!	!	!	!	!	!	!	!	!	!	!
8BB-/	f	8b-\	.	8dd\	.	8b-\	8dd\	.	16dd\LL	.	(>16ff\LL	.
.	.	.	.	.	.	.	.	.	(>16b-\	.	16dd\)	.
8B-\J	.	8r	.	8r	.	8r	8r	.	16dd\	.	(>16ff\	.
.	.	.	.	.	.	.	.	.	16b-\JJ)	.	16dd\JJ)	.
!	!	!LO:LB:g=original	!	!	!	!	!	!	!LO:LB:g=original	!	!	!
=7	=7	=7	=7	=7	=7	=7	=7	=7	=7	=7	=7	=7
!LO:TX:a:t=P:problem:mixed beam	!	!	!	!	!	!	!	!	!	!	!	!
8F\L	.	(>16a\LL	.	(>16cc\LL	.	8f/L	8cc\L	.	16a\LL	.	(>16cc\LL	.
.	.	16b-\	.	16dd\	.	.	.	.	(>16b-\	.	16dd\	.
8FF/	.	16cc\	.	16ee-\)	.	16f/L	16cc\L	.	16cc\	.	16ee-\	.
.	.	16a\JJ)	.	16cc\JJ	.	16f/JJ	16cc\JJ	.	16a\JJ)	.	16cc\JJ)	.
8BB-/	.	8b-\	.	8dd\	.	8b-\	8dd\	.	16dd\LL	.	(>16ff\LL	.
.	.	.	.	.	.	.	.	.	(>16b-\	.	16dd\	.
8B-\J	.	8r	.	8r	.	8r	8r	.	16dd\	.	16ff\	.
.	.	.	.	.	.	.	.	.	16b-\JJ)	.	16dd\JJ)	.
!	!	!	!	!	!	!LO:LB:g=original	!LO:LB:g=original	!	!	!	!	!
=8	=8	=8	=8	=8	=8	=8	=8	=8	=8	=8	=8	=8
!	!LO:HP:b:i:t=f.	!	!LO:DY:b:rj	!LO:HP:b:i:t=f	!	!	!	!	!	!	!	!
16BB->\LL|	f	8B-/L 8f 8dd	f	8d/L 8b- 8ff	.	4B-/	4b-\	.	8dd\L	.	8ff\L	.
16D\|	.	.	.	.	.	.	.	.	.	.	.	.
16F\|	.	16r	.	16r	.	.	.	.	16r	.	16r	.
16B-\JJ|	.	16dd/Jk	.	16ff/Jk	.	.	.	.	16dd\Jk	.	16ff\Jk	.
!LO:LB:g=original	!	!	!	!LO:LB:g=original	!	!	!	!	!	!	!	!
16BB-\LL|	.	8ee-\L	.	8e-/L 8b- 8gg	.	8.B-/L	8.b-\L	.	8ee-\L	.	8gg\L	.
16D\|	.	.	.	.	.	.	.	.	.	.	.	.
16F\|	.	16r	.	16r	.	.	.	.	16r	.	16r	.
16B-\JJ|	.	16ee-\Jk	.	16gg/Jk	.	16B-/Jk	16b-\Jk	.	16ee-\Jk	.	16gg\Jk	.
=9	=9	=9	=9	=9	=9	=9	=9	=9	=9	=9	=9	=9
!LO:TX:a:t=P:problem:mixed beam	!	!	!	!	!	!	!	!	!	!	!	!
8F\L	.	(>16dd\LL	.	(>16ff\LL	.	8.f/L	8.cc\L	.	(>16dd\LL	.	(>16ff\LL	.
.	.	16b-\	.	16dd\	.	.	.	.	16b-\)	.	16dd\)	.
8FF/	.	16cc\)	.	16ee-\)	.	.	.	.	(>16cc\	.	(>16ee-\	.
.	.	16a\JJ	.	16cc\JJ	.	16f/Jk	16cc\Jk	.	16a\JJ)	.	16cc\JJ)	.
8BB-/	.	8b-\	.	8b-\	.	8B-/	8b-\	.	8b-\	.	8b-\	.
8B-\J	.	8r	.	8r	.	8r	8r	.	8r	.	8r	.
=10	=10	=10	=10	=10	=10	=10	=10	=10	=10	=10	=10	=10
!	!LO:HP:b:i:t=p.	!	!	!	!LO:HP:b:i:t=p.	!	!	!LO:HP:b:i:t=p.	!	!	!	!
!	!	!	!	!	!	!	!	!	!LO:TX:b:i:t=dol&colon;	!	!	!
8BB-/L	p	(<16f/LL	.	(<16b-/LL	p	8B-/	8b-\	p	(>16ff\LL	.	(>16bb-\LL	.
.	.	16d/)	.	16f/)|	.	.	.	.	16dd\)	.	16ff\)	.
8BB-/	.	16d/|	.	16f/|	.	8r	8r	.	16dd\|	.	16ff\|	.
.	.	16d/JJ|	.	16f/JJ|	.	.	.	.	16dd\JJ|	.	16ff\JJ|	.
8E-/	.	(<16g/LL	.	(<16b-/LL	.	8B-/	8b-\	.	(>16gg\LL	.	(>16bb-\LL	.
.	.	16e-/)	.	16g/)	.	.	.	.	16ee-\)	.	16gg\)	.
8E-/J	.	16e-/|	.	16g/|	.	8r	8r	.	16ee-\|	.	16gg\|	.
.	.	16e-/JJ|	.	16g/JJ|	.	.	.	.	16ee-\JJ|	.	16gg\JJ|	.
=11	=11	=11	=11	=11	=11	=11	=11	=11	=11	=11	=11	=11
!LO:TX:a:t=P:problem:mixed beam	!	!	!	!	!	!	!	!	!	!	!	!
8F\L	.	(<16d/LL	.	16f/LL	.	8.f/L	8.cc\L	.	(>16dd\LL	.	(>16ff\LL	.
.	.	16B-/)	.	16d/	.	.	.	.	16b-\	.	16dd\)	.
8FF/J	.	(<16c/	.	16e-/	.	.	.	.	16cc\	.	(>16ee-\	.
.	.	16A/JJ)	.	16c/JJ	.	16f/Jk	16cc\Jk	.	16a\JJ)	.	16cc\JJ)	.
4BB-/	.	8B-/	.	8B-/	.	8B-/	8b-\	.	8b-\	.	8b-\	.
.	.	8r	.	8r	.	8r	8r	.	8r	.	8r	.
=12:|!|:	=12:|!|:	=12:|!|:	=12:|!|:	=12:|!|:	=12:|!|:	=12:|!|:	=12:|!|:	=12:|!|:	=12:|!|:	=12:|!|:	=12:|!|:	=12:|!|:
!	!	!	!LO:DY:b:rj	!	!	!	!	!	!	!LO:HP:a:i:t=f.	!	!LO:HP:b:i:t=f.
!	!	!	!LO:HP:b:i:t=f.	!	!LO:HP:b:i:t=f.	!	!	!LO:HP:b:i:t=f.	!	!LO:DY:a	!	!
16BB-\LL	.	8.d/L	f	8.d/L 8.b-	f	8.B-/L	8.b-\L	f	8.d/L	f	8.b-\L	f
16B-\	.	.	.	.	.	.	.	.	.	.	.	.
16F\	.	.	.	.	.	.	.	.	.	.	.	.
!	!	!	!	!	!	!	!	!	!	!LO:HP:a:i:t=p.	!	!
!	!	!	!	!	!LO:HP:b:i:t=p.	!	!	!	!	!LO:DY:a	!	!
16D\JJ	.	16d/Jk	.	16b-/Jk	p	16B-/Jk	16b-\Jk	.	16d/Jk	p	16b-\Jk	.
!	!	!	!LO:HP:b:i:t=p.	!	!	!	!	!LO:HP:b:i:t=p.	!	!	!	!
8BB-/	.	16d/LL	p	16b-\LL|	.	8B-/	8b-\	p	16d/LL	.	16b-\LL|	.
.	.	(<16d/	.	(>16b-\	.	.	.	.	(<16d/	.	(>16b-\	.
8r	.	16e-/	.	16cc\	.	8r	8r	.	16e-/	.	16cc\	.
.	.	16d/JJ)	.	16b-\JJ)	.	.	.	.	16d/JJ)	.	16b-\JJ)	.
=13	=13	=13	=13	=13	=13	=13	=13	=13	=13	=13	=13	=13
!	!	!	!	!	!LO:DY:b:rj	!	!	!	!	!	!	!
!	!	!	!LO:HP:b:i:t=f.	!	!LO:HP:b:i:t=f.	!	!	!LO:HP:b:i:t=f.	!	!LO:HP:b:i:t=f.	!	!
16BB-\LL	.	8.b-\L	f	8.f\L 8.dd	f	8.B-/L	8.b-\L	f	8.b-\L	f	8.dd\L	.
16B-\	.	.	.	.	.	.	.	.	.	.	.	.
16F\	.	.	.	.	.	.	.	.	.	.	.	.
!	!	!	!	!	!	!	!	!	!	!LO:HP:b:i:t=p.	!	!
16D\JJ	.	16b-\Jk	.	16dd\Jk	.	16B-/Jk	16b-\Jk	.	16b-\Jk	p	16dd\Jk	.
!	!	!	!LO:HP:b:i:t=p.	!	!	!	!	!LO:HP:b:i:t=p.	!	!	!	!
8BB-/	.	16b-\LL	p	16dd\LL|	.	8B-/	8b-\	p	16b-\LL	.	16dd\LL|	.
.	.	(>16b-\	.	(>16dd\	.	.	.	.	16b-\	.	(>16dd\	.
8r	.	16cc\	.	16ee-\	.	8r	8r	.	16cc\	.	16ee-\	.
.	.	16b-\JJ)	.	16dd\JJ)	.	.	.	.	16b-\JJ	.	16dd\JJ)	.
=14	=14	=14	=14	=14	=14	=14	=14	=14	=14	=14	=14	=14
!	!	!	!LO:HP:b:i:B:t=f.	!	!	!LO:TX:a:t=P:problem: takty 14-15 ujęte w klamry z repetycją	!LO:TX:a:t=P:problem: takty 14-15 ujęte w klamry z repetycją	!	!LO:TX:a:t=P:problem: takty 14-15 ujęte w klamry z repetycją	!	!	!
8BB-/	.	16b-\LL	f	16dd\LL	.	8B-/	8b-\	.	8dd\	.	8dd\	.
.	.	32cc\L	.	32ee-\L	.	.	.	.	.	.	.	.
.	.	32dd\JJJ	.	32ff\JJJ	.	.	.	.	.	.	.	.
!	!	!	!	!	!LO:HP:b:i:t=f.	!	!	!	!	!	!	!
8r	.	32ee-\LLL	.	32gg\LLL	f	8r	8r	.	8r	.	8r	.
.	.	32ff\	.	32aa\	.	.	.	.	.	.	.	.
.	.	32gg\	.	32bb-\	.	.	.	.	.	.	.	.
.	.	32aa\JJJ	.	32ccc\JJJ	.	.	.	.	.	.	.	.
!	!	!	!	!	!	!	!	!	!	!	!LO:LB:g=original	!
16BB-/LL	.	32bb-\LLL	.	32ddd\LLL	.	8B-/	8b-\	.	16b-\LL	.	16dd\LL	.
.	.	32b-\	.	32dd\	.	.	.	.	.	.	.	.
32C/L	.	32cc\	.	32ee-\	.	.	.	.	32cc\L	.	32ee-\L	.
32D/JJJ	.	32dd\JJJ	.	32ff\JJJ	.	.	.	.	32dd\JJJ	.	32ff\JJJ	.
32E-\LLL	.	32ee-\LLL	.	32gg\LLL	.	8r	8r	.	32ee-\LLL	.	32gg\LLL	.
32F\	.	32ff\	.	32aa\	.	.	.	.	32ff\	.	32aa\	.
32G\	.	32gg\	.	32bb-\	.	.	.	.	32gg\	.	32bb-\	.
32A\JJJ	.	32aa\JJJ	.	32ccc\JJJ	.	.	.	.	32aa\JJJ	.	32ccc\JJJ	.
!	!	!LO:LB:g=original	!	!	!	!	!	!	!	!	!	!
=15	=15	=15	=15	=15	=15	=15	=15	=15	=15	=15	=15	=15
!LO:TX:a:t=P:problem:mixed beam	!	!	!	!	!	!	!	!	!	!	!	!
8B-\L	.	16bb-\LL	.	16ddd\LL	.	8B-/	8b-\	.	16bb-\LL	.	16ddd\LL	.
.	.	16gg\JJ	.	16bb-\JJ	.	.	.	.	16gg\JJ	.	16bb-\JJ	.
8E-\	.	16r	.	16r	.	8r	8r	.	16r	.	16r	.
.	.	16ee-\	.	16gg\LL	.	.	.	.	16ee-\	.	16gg\	.
!	!	!	!	!	!	!	!	!	!LO:LB:g=original	!	!	!
8F\	.	16r	.	16r	.	8.f/L	8.cc\L	.	16r	.	16r	.
.	.	16dd\	.	16ff\	.	.	.	.	16dd\	.	16ff\	.
8FF/J	.	16r	.	16r	.	.	.	.	16r	.	16r	.
.	.	16cc\	.	16aa\JJ	.	16f/Jk	16cc\Jk	.	16cc\	.	16aa\	.
!	!	!	!	!LO:LB:g=original	!	!	!	!	!	!	!	!
=16	=16	=16	=16	=16	=16	=16	=16	=16	=16	=16	=16	=16
!	!	!	!	!	!	!LO:TX:a:t=P:problem:takty 16-17 to rozpisana repetycja	!LO:TX:a:t=P:problem: takty 16-17 to rozpisana repetycja	!	!LO:TX:a:t=P:problem: takty 16-17 to rozpisana repetycja	!	!	!
8BB-/	.	32dd\LLL	.	32bb-\LLL	.	8B-/	8b-\	.	8dd\	.	8bb-\	.
.	.	32b-\	.	32dd\	.	.	.	.	.	.	.	.
.	.	32cc\	.	32ee-\	.	.	.	.	.	.	.	.
.	.	32dd\JJJ	.	32ff\JJJ	.	.	.	.	.	.	.	.
8r	.	32ee-\LLL	.	32gg\LLL	.	8r	8r	.	8r	.	8r	.
.	.	32ff\	.	32aa\	.	.	.	.	.	.	.	.
.	.	32gg\	.	32bb-\	.	.	.	.	.	.	.	.
.	.	32aa\JJJ	.	32ccc\JJJ	.	.	.	.	.	.	.	.
16BB-/LL	.	32bb-\LLL	.	32ddd\LLL	.	8B-/	8b-\	.	16b-\LL	.	16dd\LL	.
.	.	32b-\	.	32dd\	.	.	.	.	.	.	.	.
32C/L	.	32cc\	.	32ee-\	.	.	.	.	32cc\L	.	32ee-\L	.
32D/JJJ	.	32dd\JJJ	.	32ff\JJJ	.	.	.	.	32dd\JJJ	.	32ff\JJJ	.
32E-\LLL	.	32ee-\LLL	.	32gg\LLL	.	8r	8r	.	32ee-\LLL	.	32gg\LLL	.
32F\	.	32ff\	.	32aa\	.	.	.	.	32ff\	.	32aa\	.
32G\	.	32gg\	.	32bb-\	.	.	.	.	32gg\	.	32bb-\	.
32A\JJJ	.	32aa\JJJ	.	32ccc\JJJ	.	.	.	.	32aa\JJJ	.	32ccc\JJJ	.
=17	=17	=17	=17	=17	=17	=17	=17	=17	=17	=17	=17	=17
!LO:TX:a:t=P:problem: mixed beam	!	!	!	!	!	!	!	!	!	!	!	!
8B-\L	.	16bb-\LL	.	16ddd\LL	.	8B-/	8b-\	.	16bb-\LL	.	16ddd\LL	.
.	.	16gg\JJ	.	16bb-\JJ	.	.	.	.	16gg\JJ	.	16bb-\JJ	.
8E-\	.	16r	.	16r	.	8r	8r	.	16r	.	16r	.
.	.	16ee-\	.	16gg\	.	.	.	.	16ee-\	.	16gg\	.
8F\	.	16r	.	16r	.	8.f/L	8.cc\L	.	16r	.	16r	.
.	.	16dd\	.	16ff\	.	.	.	.	16dd\	.	16ff\	.
8FF/J	.	16r	.	16r	.	.	.	.	16r	.	16r	.
.	.	16cc\	.	16aa\	.	16f/Jk	16cc\Jk	.	16cc\	.	16aa\	.
!LO:LB:g=original	!	!	!	!	!	!	!	!	!	!	!	!
=18	=18	=18	=18	=18	=18	=18	=18	=18	=18	=18	=18	=18
!	!LO:DY:a	!	!	!	!	!	!	!	!	!	!	!
!	!LO:HP:a:i:t=f.	!	!	!	!	!	!	!	!	!	!	!
16BB-\LL|	f	16dd\LL|	.	16bb-\LL|	.	8d/	8b-\	.	16dd\LL	.	16bb-\LL|	.
16BB-\|	.	16dd\|	.	16bb-\|	.	.	.	.	16dd\	.	16bb-\|	.
!	!	!	!	!	!LO:HP:b:i:t=ffor.	!	!	!	!	!	!	!
16E-\|	.	16ee-\|	.	16gg\|	ff	8r	8r	.	16ee-\	.	16gg\|	.
16E-\JJ|	.	16ee-\JJ|	.	16gg\JJ|	.	.	.	.	16ee-\JJ	.	16gg\JJ|	.
!LO:TX:a:t=P:problem:mixed beam	!	!	!	!	!	!	!	!	!	!	!	!
16F\LL|	.	16dd\LL|	.	16ff\LL	.	8.f/L	8.cc\L	.	16dd\LL	.	16ff\LL|	.
16F\|	.	16dd\|	.	16ff\|	.	.	.	.	16dd\	.	16ff\|	.
16FF/|	.	16cc\|	.	16aa\|	.	.	.	.	16cc\	.	16aa\|	.
!	!	!	!	!	!	!LO:SIC:o=8g	!	!	!	!	!	!
16FF/JJ|	.	16cc\JJ|	.	16aa\JJ|	.	16f/Jk	16cc\Jk	.	16cc\JJ	.	16aa\JJ|	.
=19	=19	=19	=19	=19	=19	=19	=19	=19	=19	=19	=19	=19
16BB-/LL	.	16dd\LL|	.	16bb-\LL|	.	8d/L	8b-\L	.	16dd\LL	.	16bb-\LL	.
16BB-/	.	16ff\|	.	16ddd\|	.	.	.	.	16ff\	.	16ddd\	.
16BB-/	.	16dd\|	.	16bb-\|	.	16B-/L	16b-\L	.	16dd\	.	16bb-\	.
16BB-/JJ	.	16ff\JJ|	.	16ddd\JJ|	.	16B-/JJ	16b-\JJ	.	16ff\JJ	.	16ddd\JJ	.
8BB-/	.	8dd\	.	8bb-\	.	8B-/	8b-\	.	8dd\	.	8bb-\	.
8r	.	8r	.	8r	.	8r	8r	.	8r	.	8r	.
!	!	!	!	!	!	!	!	!	!	!	!LO:LB:g=original	!
=20	=20	=20	=20	=20	=20	=20	=20	=20	=20	=20	=20	=20
!LO:TX:a:t=P:problem: takty 20-21 ujęte w klamry z repetycją	!	!LO:TX:a:t=P:problem: takty 20-21 ujęte w klamry z repetycją	!	!LO:TX:a:t=P:problem: takty 20-21 ujęte w klamry z repetycją	!	!LO:TX:a:t=P:problem: takty 20-21 ujęte w klamry z repetycją	!LO:TX:a:t=P:problem: takty 20-21 ujęte w klamry z repetycją	!	!	!	!	!
16F\LL	.	8f/L 8cc	.	8A/L 8f 8ee-	.	4f/	4cc\	.	4cc\	.	4ee-\	.
16c\	.	.	.	.	.	.	.	.	.	.	.	.
16A\	.	16r	.	16r	.	.	.	.	.	.	.	.
16F\JJ	.	16cc/Jk	.	16ee-/Jk	.	.	.	.	.	.	.	.
16B-\LL	.	8d/L 8b-	.	8B-/L 8f 8dd	.	8.b-\L	8.dd\L	.	8b-\L	.	8dd\L	.
16F\	.	.	.	.	.	.	.	.	.	.	.	.
16D\	.	16r	.	16r	.	.	.	.	16r	.	16r	.
16BB-\JJ	.	16b-/Jk	.	16dd/Jk	.	16b-\Jk	16dd\Jk	.	16b-\Jk	.	16dd\Jk	.
!	!	!	!	!	!	!LO:LB:g=original	!LO:LB:g=original	!	!	!	!	!
=21	=21	=21	=21	=21	=21	=21	=21	=21	=21	=21	=21	=21
!LO:TX:a:t=P:problem:mixed beam	!	!	!	!	!	!	!	!	!	!	!	!
8F\L	.	(>16a\LL	.	(>16cc\LL	.	16f\LL	16cc\LL	.	(>16a\LL	.	(>16cc\LL	.
!	!	!	!	!	!	!	!	!	!LO:TX:b:i:t=dol&colon;	!	!	!
.	.	16b-\	.	16dd\)	.	16b-\	16dd\	.	16b-\	.	16dd\)	.
8FF/	.	16cc\)	.	16ee-\|	.	16cc\	16ee-\	.	16cc\)	.	16ee-\|	.
.	.	16cc\JJ|	.	16ee-\JJ|	.	16cc\JJ	16ee-\JJ	.	16cc\JJ|	.	16ee-\JJ|	.
8BB-/	.	(>16dd\LL	.	(>16ff\LL	.	8b-\	8dd\	.	(>16dd\LL	.	(>16ff\LL	.
.	.	16cc\	.	16ee-\)	.	.	.	.	16cc\	.	16ee-\)	.
8B-\J	.	16b-\)	.	16dd\|	.	8r	8r	.	16b-\)	.	16dd\|	.
.	.	16b-\JJ|	.	16dd\JJ|	.	.	.	.	16b-\JJ|	.	16dd\JJ|	.
=22	=22	=22	=22	=22	=22	=22	=22	=22	=22	=22	=22	=22
!LO:TX:a:t=P:problem:takty 22-23 to rozpisana repe	!	!LO:TX:a:t=P:problem:takty 22-23 to rozpisana repetycja	!	!LO:TX:a:t=P:problem:takty 22-23 to rozpisana repetycja	!	!LO:TX:a:t=P:problem:takty 22-23 to rozpisana repetycja	!LO:TX:a:t=P:problem:takty 22-23 to rozpisana repetycja	!	!	!	!	!
16F\LL	.	8f/L 8cc	.	8A/L 8f 8ee-	.	4f/	4cc\	.	4cc\	.	4ee-\	.
16c\	.	.	.	.	.	.	.	.	.	.	.	.
16A\	.	16r	.	16r	.	.	.	.	.	.	.	.
16F\JJ	.	16cc/Jk	.	16ee-/Jk	.	.	.	.	.	.	.	.
16B-\LL	.	8d/L 8b-	.	8B-/L 8f 8dd	.	8.b-\L	8.dd\L	.	8b-\L	.	8dd\L	.
16F\	.	.	.	.	.	.	.	.	.	.	.	.
16D\	.	16r	.	16r	.	.	.	.	16r	.	16r	.
16BB-\JJ	.	16b-/Jk	.	16dd/Jk	.	16b-\Jk	16dd\Jk	.	16b-\Jk	.	16dd\Jk	.
=23	=23	=23	=23	=23	=23	=23	=23	=23	=23	=23	=23	=23
!LO:TX:a:t=P:problem: mixed beam	!	!	!	!	!	!	!	!	!	!	!	!
8F\L	.	(>16a\LL	.	(>16cc\LL	.	16f\LL	16cc\LL	.	(>16a\LL	.	(>16cc\LL	.
.	.	16b-\	.	16dd\)	.	16b-\	16dd\	.	16b-\	.	16dd\)	.
8FF/	.	16cc\)	.	16ee-\|	.	16cc\	16ee-\	.	16cc\)	.	16ee-\|	.
.	.	16cc\JJ|	.	16ee-\JJ|	.	16cc\JJ	16ee-\JJ	.	16cc\JJ|	.	16ee-\JJ	.
8BB-/	.	(>16dd\LL	.	(>16ff\LL	.	8b-\	8dd\	.	(16dd\LL	.	(16ff\LL	.
.	.	16cc\	.	16ee-\)	.	.	.	.	16cc\	.	16ee-\	.
8B-\J	.	16b-\)	.	16dd\|	.	8r	8r	.	16b-\)	.	16dd\)	.
.	.	16b-\JJ|	.	16dd\JJ|	.	.	.	.	16dd\JJ	.	16ff\JJ	.
!	!	!LO:LB:g=original	!	!	!	!	!	!	!	!	!	!
=24	=24	=24	=24	=24	=24	=24	=24	=24	=24	=24	=24	=24
!	!	!	!LO:HP:b:i:t=pia=	!	!LO:HP:b:i:t=p.	!	!	!LO:HP:b:i:t=p.	!LO:TX:b:i:t=dol&colon;	!	!	!
8BB-/L	.	16.g/LL	p	(<16.b-/LL	p	8B-/L	8b-\L	p	(>16.gg\LL	.	(>16.bb-\LL	.
!	!	!	!	!	!	!	!	!	!	!	!LO:TX:b:i:t=dol&colon;	!
.	.	32f/K	.	32a/K)	.	.	.	.	32ff\K)	.	32aa\K)	.
8BB-/	.	16.e-/	.	(<16.g/	.	8B-/	8b-\	.	(>16.ee-\	.	(16.gg\	.
.	.	[<32d/JJk	.	32f/JJk)	.	.	.	.	32dd\JJk)	.	32ff\JJk)	.
8BB-/J	.	16d/LL]	.	16f/LL	.	8B-/J	8b-\J	.	(>16dd\LL	.	16ff\LL	.
.	.	(<16c/	.	(<16e-/	.	.	.	.	16cc\	.	(>16ee-\	.
8r	.	(<16B-/)	.	16d/	.	8r	8r	.	16b-\	.	16dd\	.
!	!	!	!	!	!	!	!	!	!	!	!LO:TX:a:i:t=g	!
!	!	!	!	!	!	!	!	!	!	!	!LO:TX:a:t=P:problem: nuta poddana korekcie	!
.	.	16d/JJ)	.	16e-/JJ)	.	.	.	.	16dd\JJ)	.	16ff\JJ)	.
!	!	!	!	!LO:LB:g=original	!	!	!	!	!	!	!	!
=25	=25	=25	=25	=25	=25	=25	=25	=25	=25	=25	=25	=25
!LO:TX:a:t=P:problem: mixed beam	!	!	!	!	!	!	!	!	!	!	!	!
8BB-/L	.	16.g/LL	.	(<16.b-/LL	.	8d/	8b-\	.	(>16.gg\LL	.	(>16.bb-\LL	.
.	.	32f/K	.	32a/K)	.	.	.	.	32ff\K)	.	32aa\K)	.
8BB-/	.	16.e-/	.	(<16.g/	.	8r	8r	.	(>16.ee-\	.	(>16.gg\	.
.	.	32d/JJk	.	32f/JJk)	.	.	.	.	32dd\JJk)	.	32ff\JJk)	.
8F\	.	16c/LL|	.	16e-/LL|	.	8.f/L	8.cc\L	.	16cc\LL|	.	16ee-\LL|	.
.	.	16c/|	.	16e-/|	.	.	.	.	16cc\|	.	16ee-\|	.
8FF/J	.	16A/|	.	16c/|	.	.	.	.	16a\|	.	16cc\|	.
.	.	16A/JJ|	.	16c/JJ|	.	16f/Jk	16cc\Jk	.	16a\JJ|	.	16cc\JJ|	.
!	!	!	!	!	!	!	!	!	!LO:LB:g=original	!	!	!
=26	=26	=26	=26	=26	=26	=26	=26	=26	=26	=26	=26	=26
!	!	!	!	!	!	!	!	!LO:HP:b:i:t=p.	!	!	!	!
8BB-/	.	8B-/	.	8B-/	.	8d/	8b-\	p	8b-\	.	8b-\	.
!	!	!	!	!	!	!	!	!LO:HP:b:i:t=p.	!	!LO:HP:b:i:t=p.	!	!
8r	.	8r	.	8r	.	8r	8r	p	8r	p	8r	.
!	!	!	!	!	!	!	!	!	!LO:TX:a:t=problem&colon; brak informacji o grupie niemiarowej	!	!LO:TX:a:t=problem&colon; brak informacji o grupie niemiarowej	!
*	*	*	*	*	*	*	*	*	*Xtuplet	*	*Xtuplet	*
!	!LO:HP:b:i:t=p.	!	!	!	!	!	!	!	!	!	!	!LO:HP:b:i:t=p.
8F\L	p|	4r	.	4r	.	8.f/L	8.cc\L	.	(>24cc\LL	.	(>24ee-\LL	p
.	.	.	.	.	.	.	.	.	24dd\	.	24ff\	.
.	.	.	.	.	.	.	.	.	24cc\JJ)	.	24ee-\JJ)	.
8F\J	.	.	.	.	.	.	.	.	16a\LL|	.	16cc\LL|	.
.	.	.	.	.	.	16f/Jk	16cc\Jk	.	16a\JJ|	.	16cc\JJ|	.
=27	=27	=27	=27	=27	=27	=27	=27	=27	=27	=27	=27	=27
!	!	!LO:TX:a:t=1	!	!LO:TX:a:t=1	!	!	!	!	!	!	!	!
8BB-/	.	2r	.	2r	.	8d/	8b-\	.	8b-\	.	8b-\	.
8r	.	.	.	.	.	8r	8r	.	8r	.	8r	.
4r	.	.	.	.	.	4r	4r	.	4r	.	4r	.
!LO:LB:g=original	!	!	!	!	!	!	!	!	!	!	!LO:LB:g=original	!
=28||	=28:|!	=28:|!	=28:|!	=28:|!	=28:|!	=28:|!	=28:|!	=28:|!	=28:|!	=28:|!	=28:|!	=28:|!
*	*	*clefG2	*	*clefG2	*	*	*	*	*	*	*	*
*	*	*k[b-e-]	*	*k[b-e-]	*	*	*	*	*	*	*	*
*M3/4	*	*M3/4	*	*M3/4	*	*M3/4	*M3/4	*	*M3/4	*	*M3/4	*
!	!	!	!	!	!	!	!	!	!	!	!LO:TX:a:t=P:problem: oznaczenie tempa na pięciolinii przed kluczem	!
!LO:TX:a:t=1	!	!LO:TX:a:t=1	!	!LO:TX:a:t=1	!	!	!	!	!	!	!LO:TX:b:i:t=dol&colon;	!
!LO:TX:a:i:t=Largo	!	!LO:TX:a:i:t=Largo&colon;	!	!LO:TX:a:i:t=Largo	!	!	!LO:TX:b:i:t=Largo&colon;	!	!LO:TX:a:i:t=Largo&colon;	!	!LO:TX:a:i:t=Largo	!
!LO:TX:a:t=P:problem: oznaczenie tempa na pięciolinii przed kluczem	!	!LO:TX:a:t=P:problem: przed odcinkiem largo powtórzony klucz	!	!LO:TX:a:t=P:problem: przed odcinkiem largo powtórzony klucz	!	!LO:TX:a:t=P:problem: odcinek Largo poprzedzony ponowną akoladą i kluczem wewnątrz systemu	!LO:TX:a:t=P:problem: odcinek Largo poprzedzony ponowną akoladą i kluczem wewnątrz systemu	!	!LO:TX:b:i:t=dol&colon;	!	!	!
2.r	.	2.r	.	2.r	.	2.r	2.r	.	4gg\	.	4bb-\	.
.	.	.	.	.	.	.	.	.	4ee-\	.	4gg\	.
.	.	.	.	.	.	.	.	.	4dd\	.	4gg\	.
=29	=29	=29	=29	=29	=29	=29	=29	=29	=29	=29	=29	=29
*	*	*	*	*2\right	*	*	*2\right	*	*2\right	*	*2\right	*
!	!	!	!	!	!	!	!LO:TX:a:t=P:problem: takty 29-311 ujęte w klamry z repetycją	!	!	!	!	!
!	!LO:HP:b:i:t=f	!	!LO:HP:b:i:t=sfor.	!	!LO:HP:b:i:t=sfr.	!LO:TX:a:t=P:problem: takty 29-31 ujęte w klamry z repetycją	!LO:TX:a:t=P:problem: takty 29-31 ujęte w klamry z repetycją	!LO:HP:b:i:t=fp.	!LO:TX:a:t=P:problem: brak kropki po sf	!	!	!
*	*	*	*	*	*	*tremolo	*tremolo	*	*	*	*	*
8BB-/L	f	2g/	sfz	2g\ 2ee-	sfz	8B-/L	8b-\L	fp	2g/	sf	2ee-\	sf
8BB-/	.	.	.	.	.	8B-/	8b-\	.	.	.	.	.
!	!LO:HP:b:i:t=p.	!	!	!	!	!	!	!	!	!	!	!
8BB-/	p	.	.	.	.	8B-/	8b-\	.	.	.	.	.
8BB-/	.	.	.	.	.	8B-/J	8b-\J	.	.	.	.	.
*	*	*	*	*	*	*Xtremolo	*Xtremolo	*	*	*	*	*
8BB-/	.	4f/	.	4f\ 4dd	.	8B-/L	8b-\L	.	4f/	.	4dd\	.
8BB-/J	.	.	.	.	.	8B-/J	8b-\J	.	.	.	.	.
=30	=30	=30	=30	=30	=30	=30	=30	=30	=30	=30	=30	=30
*	*	*2\right	*	*	*	*tremolo	*tremolo	*	*	*	*	*
!	!LO:HP:b:i:t=f.	!	!	!	!LO:HP:b:i:t=sfr.	!	!	!LO:HP:b:i:t=fp.	!	!LO:HP:b:i:t=sf.	!	!LO:HP:b:i:t=sfor
*	*	*	*	*	*	*	*	*	*	*	*	*
8BB-/L	f	2ee-\	f	2b-\ 2gg	sfz	8B-/L	8b-\L	fp	2ee-\	sf	2gg\	sfz
8BB-/	.	.	.	.	.	8B-/	8b-\	.	.	.	.	.
!	!LO:HP:b:i:t=p.	!	!	!	!	!	!	!	!	!	!	!
8BB-/	p	.	.	.	.	8B-/	8b-\	.	.	.	.	.
8BB-/	.	.	.	.	.	8B-/J	8b-\J	.	.	.	.	.
*	*	*	*	*	*	*Xtremolo	*Xtremolo	*	*	*	*	*
!	!	!	!LO:HP:b:i:t=p.	!	!	!	!	!	!	!	!	!
8BB-/	.	(>8.dd\L	p	8.ff\L	.	8B-/L	8b-\L	.	8.dd\L	.	8.ff\L	.
8BB-/J	.	.	.	.	.	8B-/J	8b-\J	.	.	.	.	.
.	.	16f\Jk)	.	16dd\Jk	.	.	.	.	16b-\Jk	.	16dd\Jk	.
=31	=31	=31	=31	=31	=31	=31	=31	=31	=31	=31	=31	=31
!LO:TX:a:t=P:problem:mixed beam	!	!	!	!	!LO:HP:b:t=p.	!	!	!	!	!LO:HP:b:i:t=p.	!	!LO:HP:b:i:t=p.
8E-\L	.	(<16f/LL	.	(>16dd\LL	p	4r	4r	.	16f/LL	p	(>16dd\LL	p
.	.	16e-/	.	16cc\	.	.	.	.	16e-/	.	16cc\	.
8E-\	.	16g/	.	16ee-\	.	.	.	.	16g/	.	16ee-\)	.
.	.	16e-/JJ)	.	16cc\JJ)	.	.	.	.	16e-/JJ	.	16cc\JJ	.
8F\	.	4d/	.	4b-/	.	4b-\	4dd\	.	4d/	.	4b-\	.
8F\	.	.	.	.	.	.	.	.	.	.	.	.
8FF/	.	4c/	.	4a/	.	4f/	4cc\	.	4c/	.	4a\	.
8FF/J	.	.	.	.	.	.	.	.	.	.	.	.
!	!	!LO:LB:g=original	!	!	!	!	!	!	!	!	!	!
=32	=32	=32	=32	=32	=32	=32	=32	=32	=32	=32	=32	=32
*	*	*	*	*	*	*tremolo	*tremolo	*	*	*	*	*
!	!LO:HP:b:i:t=f.	!	!LO:HP:b:i:t=sfor.	!	!LO:HP:b:i:t=sfr.	!LO:TX:a:t=P:problem:takty 32-34 to rozpisana repetycja	!LO:TX:a:t=P:problem:takty 32-34 to rozpisana repetycja	!LO:HP:b:i:t=fp.	!	!LO:HP:b:i:t=sf.	!	!
*tremolo	*	*	*	*	*	*	*	*	*	*	*	*
8BB-/L	f	2g/	sf	2g\ 2ee-	sfz	8B-/L	8b-\L	fp	2g/	sf	2ee-\	.
8BB-/	.	.	.	.	.	8B-/	8b-\	.	.	.	.	.
8BB-/	.	.	.	.	.	8B-/	8b-\	.	.	.	.	.
8BB-/J	.	.	.	.	.	8B-/J	8b-\J	.	.	.	.	.
*Xtremolo	*	*	*	*	*	*Xtremolo	*Xtremolo	*	*	*	*	*
!	!LO:HP:b:i:t=p.	!	!	!	!	!	!	!	!	!	!	!
8BB-/L	p	4f/	.	4f\ 4dd	.	8B-/L	8b-\L	.	4f/	.	4dd\	.
8BB-/J	.	.	.	.	.	8B-/J	8b-\J	.	.	.	.	.
=33	=33	=33	=33	=33	=33	=33	=33	=33	=33	=33	=33	=33
!	!LO:HP:b:i:t=f.	!	!LO:HP:b:i:t=sf.	!	!	!	!	!LO:HP:b:i:t=fp.	!	!LO:HP:b:i:t=sf.	!	!
!LO:TX:a:t=P:problem= brak kropki po f	!	!	!	!	!	!	!	!	!	!	!	!
*tremolo	*	*	*	*	*	*tremolo	*tremolo	*	*	*	*	*
8BB-/L	f	2ee-\	sf	2b-\ 2gg	.	8B-/L	8b-\L	fp	2ee-\	sf	2gg\	.
8BB-/	.	.	.	.	.	8B-/	8b-\	.	.	.	.	.
8BB-/	.	.	.	.	.	8B-/	8b-\	.	.	.	.	.
8BB-/J	.	.	.	.	.	8B-/J	8b-\J	.	.	.	.	.
*Xtremolo	*	*	*	*	*	*Xtremolo	*Xtremolo	*	*	*	*	*
!	!	!	!	!	!LO:HP:b:i:t=sfr.	!	!	!	!	!	!	!
8BB-/L	.	8.dd\L	.	8.ff\L	sfz	8B-/L	8b-\L	.	8.dd\L	.	(>8.ff\L	.
!	!LO:HP:b:i:t=p.	!	!	!	!	!	!	!	!	!	!	!
8BB-/J	p	.	.	.	.	8B-/J	8b-\J	.	.	.	.	.
!	!	!	!LO:HP:b:i:t=p.	!	!	!	!	!	!	!	!	!
.	.	16b-\Jk	p	16dd\Jk	.	.	.	.	16b-\Jk	.	16dd\Jk)	.
=34	=34	=34	=34	=34	=34	=34	=34	=34	=34	=34	=34	=34
!LO:TX:a:t=P:problem:mixed beam	!LO:HP:b:i:t=p.	!	!	!	!LO:HP:b:i:t=p.	!	!	!	!	!	!	!
8E-\L	p	(<16f/LL	.	(>16dd\LL	p	4r	4r	.	(<16f/LL	.	16dd\LL	.
.	.	16e-/	.	16cc\	.	.	.	.	16e-/	.	16cc\	.
8E-\	.	16g/	.	16ee-\	.	.	.	.	16g/	.	16ee-\	.
.	.	16e-/JJ)	.	16cc\JJ)	.	.	.	.	16e-/JJ)	.	16dd\JJ	.
8F\	.	4d/	.	4b-\	.	4b-\	4dd\	.	4d/	.	4b-\	.
8F\	.	.	.	.	.	.	.	.	.	.	.	.
!	!	!	!	!	!LO:HP:b:i:t=f.	!	!	!	!	!	!	!
8FF/	.	4c/	.	4a\	f	4f/	4cc\	.	4c/	.	4a\	.
8FF/J	.	.	.	.	.	.	.	.	.	.	.	.
=35	=35	=35	=35	=35	=35	=35	=35	=35	=35	=35	=35	=35
*	*	*	*	*	*	*	*	*	*	*^	*	*
!	!	!	!LO:DY:a	!	!	!	!	!	!	!	!	!	!
!	!	!	!	!	!	!	!	!	!	!LO:DY:a	!LO:DY:b	!	!
!	!LO:HP:b:i:t=fp.	!	!LO:HP:a:i:t=f.	!	!	!	!	!LO:HP:b:i:t=p.	!	!LO:HP:a:i:t=f.	!LO:HP:b:i:t=p.	!	!
*tremolo	*	*	*	*	*	*	*	*	*	*	*	*	*
8BB-/L	fp	8.d/L	f	8.b-\L	.	4B-/	4b-\	p	8.d/L	f	p	8.b-\L	.
8BB-/	.	.	.	.	.	.	.	.	.	.	.	.	.
!	!	!	!	!	!LO:HP:b:i:t=p.	!	!	!	!	!	!	!	!
.	.	16d/Jk	.	16b-\Jk	p	.	.	.	16d/Jk	.	.	16b-\Jk	.
!	!	!	!LO:DY:a	!	!	!	!	!	!LO:LB:g=original	!	!	!	!
!	!	!	!LO:HP:a:i:t=p.	!	!	!	!	!	!	!	!	!	!
8BB-/	.	16d/LL|	p	16b-\LL|	.	4B-/	4b-\	.	16d/LL|	.	.	16b-\LL	.
.	.	(<16d/	.	(>16b-\	.	.	.	.	(<16d/	.	.	16b-\	.
8BB-/	.	16c/	.	16a\	.	.	.	.	16c/	.	.	16a\	.
.	.	16d/JJ)	.	16b-\JJ)	.	.	.	.	16d/JJ)	.	.	16b-\JJ	.
8BB-/	.	(>16a\LL	.	(>16cc\LL	.	4r	4r	.	(>16a\LL	.	.	(>16cc\LL	.
.	.	16b-\)	.	16dd\	.	.	.	.	16b-\	.	.	16dd\)	.
8BB-/J	.	16cc\|	.	16ee-\	.	.	.	.	16cc\)	.	.	16ee-\|	.
.	.	16cc\JJ|	.	16ee-\JJ)	.	.	.	.	16cc\JJ|	.	.	16ee-\JJ	.
*Xtremolo	*	*	*	*	*	*	*	*	*	*	*	*	*
!	!	!	!	!	!	!	!	!	!	!	!	!LO:LB:g=original	!
*	*	*	*	*	*	*	*	*	*	*v	*v	*	*
!LO:LB:g=original	!	!	!	!LO:LB:g=original	!	!	!	!	!	!	!	!
=36	=36	=36	=36	=36	=36	=36	=36	=36	=36	=36	=36	=36
!LO:TX:a:t=P:problem:mixed beam	!LO:HP:b:i:t=fp.	!	!	!	!LO:HP:b:i:t=f.	!	!	!	!	!LO:HP:b:i:t=f.	!	!
!	!	!	!	!	!	!	!	!	!LO:HP:b:i:t=f.	!	!	!
!	!	!	!	!	!LO:DY:b:rj	!	!	!	!	!	!	!
8BB-/L	fp	8.d/L 8.b-	f	8.f\L 8.dd	f	4B-/	4b-\	.	8.b-\L	f	8.dd\L	.
8B-\J	.	.	.	.	.	.	.	.	.	.	.	.
.	.	16b-/Jk	.	16dd\Jk	.	.	.	.	16b-\Jk	.	16dd\Jk|	.
!	!	!	!	!	!	!	!	!	!	!LO:HP:b:i:t=p.	!	!
!	!	!	!LO:HP:b:i:t=p.	!	!LO:HP:b:i:t=p.	!	!	!	!	!LO:DY:b:rj	!	!
4BB-/	.	16b-/LL|	p	16dd\LL|	p	4B-/	4b-\	.	(>16b-\LL	p	(>16dd\LL	.
.	.	(<16b-/	.	(>16dd\	.	.	.	.	16b-\	.	16dd\	.
.	.	16a/	.	16cc\	.	.	.	.	16a\)	.	16cc\)	.
.	.	16b-/JJ)	.	16dd\JJ)	.	.	.	.	16b-\JJ	.	16dd\JJ	.
4r	.	(>16cc\LL	.	(>16ee-\LL	.	4r	4r	.	(>16cc\LL	.	(>16ee-\LL	.
.	.	16dd\	.	16ff\	.	.	.	.	16dd\	.	16ff\	.
.	.	16ee-\)	.	16gg\)	.	.	.	.	16ee-\)	.	16gg\)	.
.	.	16ee-\JJ|	.	16gg\JJ|	.	.	.	.	16ee-\JJ|	.	16gg\JJ|	.
!	!	!	!	!	!	!LO:LB:g=original	!LO:LB:g=original	!	!	!	!	!
=37	=37	=37	=37	=37	=37	=37	=37	=37	=37	=37	=37	=37
!	!LO:HP:b:i:t=p.	!	!	!	!	!	!	!	!	!	!	!
8BB-/	p	4dd\	.	4ff\	.	4B-/	4b-\	.	(>16dd\LL	.	(>16ff\LL	.
.	.	.	.	.	.	.	.	.	16cc\	.	16ee-\	.
!	!	!	!	!	!	!	!	!	!	!	!LO:TX:b:i:t=dol&colon;	!
8r	.	.	.	.	.	.	.	.	16b-\)	.	16dd\)	.
.	.	.	.	.	.	.	.	.	16dd\JJ|	.	16bb-\JJ	.
!	!	!	!	!LO:TX:a:i:t=dolce	!	!	!	!	!	!	!	!
8BB-/	.	4r	.	4r	.	4B-/	4b-\	.	(>16dd\LL	.	(>16ff\LL	.
.	.	.	.	.	.	.	.	.	16cc\	.	16ee-\	.
8r	.	.	.	.	.	.	.	.	16b-\	.	16dd\)	.
!	!	!	!	!	!	!	!	!	!LO:TX:a:t=P:problem: trudne do określenia miejsce zamknięcia łuku	!	!	!
.	.	.	.	.	.	.	.	.	16dd\JJ)|	.	16bb-\JJ	.
8BB-/	.	(<16d/LL	.	8ff\L	.	4r	4r	.	4dd\	.	(>8ff\L	.
!	!	!	!LO:DY:a	!	!	!	!	!	!	!	!	!
!	!	!	!LO:HP:a:i:t=p.	!	!	!	!	!	!	!	!	!
.	.	16B-/)	p	.	.	.	.	.	.	.	.	.
8r	.	(<16d/	.	8ff#X\J	.	.	.	.	.	.	8ff#X\J)	.
.	.	16B-/JJ)	.	.	.	.	.	.	.	.	.	.
=38	=38	=38	=38	=38	=38	=38	=38	=38	=38	=38	=38	=38
*2\right	*	*	*	*	*	*	*	*	*	*	*	*
!	!	!	!	!	!	!	!LO:TX:a:t=2	!	!	!	!	!
*tremolo	*	*	*	*	*	*	*	*	*	*	*	*
!	!	!	!	!	!	!LO:N:vis=0	!LO:N:vis=0	!	!	!	!	!
8E-\L	.	16e-/LL	.	(>8.gg\L	.	1.r	1.r	.	8ee-\	.	8gg\	.
.	.	16B-/	.	.	.	.	.	.	.	.	.	.
8E-\	.	16e-/	.	.	.	.	.	.	8r	.	8r	.
.	.	16B-/JJ	.	16ee-\Jk)	.	.	.	.	.	.	.	.
8E-\	.	(<16e-/LL	.	(>16dd\LL	.	.	.	.	4r	.	4r	.
.	.	16B-/)	.	16cc\	.	.	.	.	.	.	.	.
8E-\	.	(<16e-/	.	16bn\	.	.	.	.	.	.	.	.
.	.	16B-/JJ)	.	16cc\JJ)	.	.	.	.	.	.	.	.
8E-\	.	16e-/LL	.	(>16ee-\LL	.	.	.	.	4r	.	4r	.
.	.	16B-/	.	16cc\)	.	.	.	.	.	.	.	.
8E-\J	.	16e-/	.	16gg\|	.	.	.	.	.	.	.	.
.	.	16B-/JJ	.	16gg\JJ|	.	.	.	.	.	.	.	.
*Xtremolo	*	*	*	*	*	*	*	*	*	*	*	*
=39	=39	=39	=39	=39	=39	=39	=39	=39	=39	=39	=39	=39
*tremolo	*	*	*	*	*	*	*	*	*	*	*	*
8BB-/L	.	16d/LL	.	(>8.ffn\L	.	.	.	.	4dd\	.	8ffn\	.
.	.	16B-/	.	.	.	.	.	.	.	.	.	.
8BB-/	.	16d/	.	.	.	.	.	.	.	.	8r	.
.	.	16B-/JJ	.	16dd\Jk)	.	.	.	.	.	.	.	.
8BB-/	.	16d/LL	.	(>16b-\LL	.	.	.	.	4r	.	4r	.
.	.	16B-/	.	16cc\	.	.	.	.	.	.	.	.
8BB-/J	.	16d/	.	16dd\	.	.	.	.	.	.	.	.
.	.	16B-/JJ	.	16ee-\JJ)	.	.	.	.	.	.	.	.
*Xtremolo	*	*	*	*	*	*	*	*	*	*	*	*
8D/L	.	16d/LL	.	16ff\LL	.	.	.	.	4r	.	4r	.
.	.	16B-/	.	(>16gg\	.	.	.	.	.	.	.	.
8D/J	.	16d/	.	16aa\)	.	.	.	.	.	.	.	.
.	.	16B-/JJ	.	16bb-\JJ	.	.	.	.	.	.	.	.
!	!	!LO:LB:g=original	!	!	!	!	!	!	!	!	!	!
=40	=40	=40	=40	=40	=40	=40	=40	=40	=40	=40	=40	=40
!LO:TX:a:t=P:problem:mixed beam	!	!LO:TX:a:t=P:problem: mixed beam	!	!	!	!	!	!	!	!	!	!
8E-\L	.	16e-/LL	.	16gg\LL	.	4r	4r	.	(>16ee-\LL	.	16gg\LL	.
.	.	.	.	16qqff/LL	.	.	.	.	.	.	16qqff/LL	.
.	.	.	.	16qqgg/JJ	.	.	.	.	.	.	16qqgg/JJ	.
.	.	16ee-\	.	(>16gg\	.	.	.	.	16ee-\	.	(>16gg\	.
8E-\	.	16dd\	.	16ff\)	.	.	.	.	16dd\)	.	16ff\	.
.	.	16cc\JJ	.	16ee-\JJ	.	.	.	.	16cc\JJ	.	16ee-\JJ)	.
!	!	!	!	!	!	!	!	!LO:HP:b:i:t=f.	!	!	!	!
!	!	!	!	!	!	!	!	!LO:DY:b:rj	!	!	!	!
8F\	.	4b-\	.	4dd\	.	4b-\	4dd\	f	4b-\	.	4dd\	.
8F\	.	.	.	.	.	.	.	.	.	.	.	.
!	!	!LO:SIC:v=trudny do identyfikacji znak nad nutą; przyjęto tryl	!	!LO:SIC:v=trudny do identyfikacji znak nad nutą; przyjęto tryl	!	!	!	!	!LO:SIC:v=trudny do identyfikacji znak nad nutą; przyjęto tryl	!	!LO:SIC:v=trudny do identyfikacji znak nad nutą; przyjęto tryl	!
8FF/	.	4at>\	.	4ccT>\	.	4f/	4cc\	.	4at>\	.	4ccT\	.
8FF/J	.	.	.	.	.	.	.	.	.	.	.	.
=41	=41	=41	=41	=41	=41	=41	=41	=41	=41	=41	=41	=41
!	!	!	!LO:HP:b:i:t=p.	!	!	!	!	!LO:HP:b:i:t=p.	!	!	!	!
4BB-/	.	16d/LL	p	(>16b-\LL	.	8d/	8b-\	p	4b-\	.	4b-\	.
.	.	16f/	.	16cc\	.	.	.	.	.	.	.	.
!	!	!	!	!LO:TX:b:i:t=dolce	!	!	!	!	!	!	!	!
.	.	16d/	.	(>16dd\)	.	8r	8r	.	.	.	.	.
.	.	16f/JJ	.	16ee-\JJ	.	.	.	.	.	.	.	.
!	!	!	!	!	!	!LO:TX:a:t=P:problem: brak pauzy ćwierćnutowej	!LO:TX:a:t=P:problem: brak pauzy ćwierćnutowej	!	!	!	!	!
4BB-/	.	16d/LL	.	(>16ff\LL)	.	4ryy	4ryy	.	4r	.	4r	.
.	.	16f/	.	16gg\)	.	.	.	.	.	.	.	.
.	.	16d/	.	(>16aa\	.	.	.	.	.	.	.	.
.	.	16f/JJ	.	16bb-\JJ)	.	.	.	.	.	.	.	.
4F\	.	(<16e-/LL	.	16aa\LL	.	8.f/L	8.cc\L	.	4r	.	4r	.
.	.	16f/)	.	(>16ff\	.	.	.	.	.	.	.	.
.	.	(<16e-/	.	16ee-\)	.	.	.	.	.	.	.	.
.	.	16f/JJ)	.	16cc\JJ	.	16f/Jk	16cc\Jk	.	.	.	.	.
=42	=42	=42	=42	=42	=42	=42	=42	=42	=42	=42	=42	=42
!	!	!LO:TX:a:t=P:problem: takt ujęty w klamry z repetycją	!	!LO:TX:a:t=P:problem: takt ujęty w klamry z repetycją	!LO:HP:b:i:t=p.	!	!	!	!LO:TX:a:t=P:problem: takt ujęty w klamry z repetycją	!	!LO:TX:a:t=P:problem:  takt ujęty w klamry z repetycją: takt 42	!
4B-\	.	16d/LL	.	16b-\LL	p	8d/	8b-\	.	(<16d/LL	p	16b-\LL	.
.	.	16f/	.	16cc\	.	.	.	.	16f/	.	(>16cc\	.
!	!	!	!	!	!	!	!	!	!	!	!LO:TX:b:i:t=dol&colon;	!
.	.	16d/	.	16dd\	.	8r	8r	.	16d/	.	16dd\	.
.	.	16f/JJ	.	16ee-\JJ	.	.	.	.	16f/JJ)	.	16ee-\JJ	.
!	!	!	!	!	!	!LO:TX:a:t=P:problem: brak pauzy ćwierćnutowej	!LO:TX:a:t=P:problem: brak pauzy ćwierćnutowej	!	!	!	!	!
4BB-/	.	16d/LL	.	16ff\LL	.	4ryy	4ryy	.	(<16d/LL	.	16ff\LL	.
.	.	16f/	.	16gg\	.	.	.	.	16f/	.	16gg\	.
.	.	16d/	.	16aa\	.	.	.	.	16d/	.	16aa\)	.
.	.	16f/JJ	.	16bb-\JJ	.	.	.	.	16f/JJ)	.	16bb-\JJ	.
4F\	.	16e-/LL	.	16aa\LL	.	8.f/L	8.cc\L	.	(<16e-/LL	.	16aa\LL	.
.	.	16f/	.	16ff\	.	.	.	.	16f/	.	(16ff\	.
.	.	16e-/	.	16ee-\	.	.	.	.	16e-/	.	16ee-\	.
.	.	16f/JJ	.	16cc\JJ	.	16f/Jk	16cc\Jk	.	16f/JJ)	.	16dd\JJ)	.
!	!	!	!	!	!	!	!	!	!LO:LB:g=original	!	!	!
=43	=43	=43	=43	=43	=43	=43	=43	=43	=43	=43	=43	=43
!	!	!LO:TX:a:t=P:problem:takt jest rozpisaną repetycją	!	!LO:TX:a:t=P:problem:rozpisana repetycja	!LO:HP:b:i:t=p.	!	!	!	!LO:TX:a:t=P:problem:takt zapisany powtórką	!	!LO:TX:a:t=P:problem: rozpisana repetycja	!
4BB-/	.	16d/LL	.	16b-\LL	p	4d/	4b-\	.	(<16d/LL	p	16b-\LL	.
.	.	16f/	.	16cc\	.	.	.	.	16f/	.	(>16cc\	.
!	!	!	!	!	!	!	!	!	!	!	!LO:TX:b:i:t=dol&colon;	!
.	.	16d/	.	16dd\	.	.	.	.	16d/	.	16dd\	.
.	.	16f/JJ	.	16ee-\JJ	.	.	.	.	16f/JJ)	.	16ee-\JJ	.
4r	.	16d/LL	.	16ff\LL	.	4r	4r	.	(<16d/LL	.	16ff\LL	.
.	.	16f/	.	16gg\	.	.	.	.	16f/	.	16gg\	.
.	.	16d/	.	16aa\	.	.	.	.	16d/	.	16aa\)	.
.	.	16f/JJ	.	16bb-\JJ	.	.	.	.	16f/JJ)	.	16bb-\JJ	.
4F\	.	16e-/LL	.	16aa\LL	.	4f/	4cc\	.	(<16e-/LL	.	16aa\LL	.
.	.	16f/	.	16ff\	.	.	.	.	16f/	.	(16ff\	.
.	.	16e-/	.	16ee-\	.	.	.	.	16e-/	.	16ee-\	.
.	.	16f/JJ	.	16cc\JJ	.	.	.	.	16f/JJ)	.	16dd\JJ)	.
=44	=44	=44	=44	=44	=44	=44	=44	=44	=44	=44	=44	=44
!	!	!	!	!	!LO:HP:b:i:t=p.	!	!	!	!LO:TX:a:t=P:problem: mixed beam	!	!	!
4BB-/	.	4d/	.	4b-\	p	4B-/	4b-\	.	16d/LL	.	16dd\LL	.
.	.	.	.	.	.	.	.	.	16bb-\	.	(>16ddd\	.
!	!	!	!	!	!	!	!	!	!LO:TX:b:i:t=dol&colon;	!	!	!
.	.	.	.	.	.	.	.	.	(>16aa\	.	16ccc\	.
.	.	.	.	.	.	.	.	.	16gg\JJ)	.	16bb-\JJ)	.
!	!	!	!	!	!	!	!	!	!	!	!LO:LB:g=original	!
4r	.	4r	.	4r	.	4r	4r	.	16ff\LL	.	16aa\LL	.
.	.	.	.	.	.	.	.	.	(>16ee-\	.	(>16gg\	.
.	.	.	.	.	.	.	.	.	16dd\)	.	16ff\	.
.	.	.	.	.	.	.	.	.	16cc\JJ	.	16ee-\JJ)	.
!	!	!	!	!LO:LB:g=original	!	!	!	!	!	!	!	!
4F\	.	16b-\LL	.	16dd\LL	.	4r	4r	.	16b-\LL	.	16dd\LL	.
.	.	(>16dd\	.	(>16ff\	.	.	.	.	(>16dd\	.	(>16ff\	.
.	.	16cc\)	.	16ee-\)	.	.	.	.	16cc\)	.	16ee-\	.
.	.	16a\JJ	.	16cc\JJ	.	.	.	.	16a\JJ	.	16cc\JJ)	.
=45	=45	=45	=45	=45	=45	=45	=45	=45	=45	=45	=45	=45
!	!	!LO:TX:a:t=P:problem:bemol nad nutą	!	!LO:TX:a:t=P:problem: takt skreślony	!	!	!	!	!	!	!	!
4BB-/	.	4b-X\	.	2.ryy	.	4B-/	4b-\	.	16b-\LL	.	16dd\LL	.
.	.	.	.	.	.	.	.	.	(>16bb-\	.	16ddd\	.
.	.	.	.	.	.	.	.	.	16aa\)	.	16ccc\	.
.	.	.	.	.	.	.	.	.	16gg\JJ	.	16bb-\JJ	.
4r	.	4r	.	.	.	4r	4r	.	16ff\LL	.	16aa\LL	.
.	.	.	.	.	.	.	.	.	(>16ee-\	.	16gg\	.
.	.	.	.	.	.	.	.	.	16dd\)	.	(>16ff\	.
.	.	.	.	.	.	.	.	.	16cc\JJ	.	16ee-\JJ)	.
4F\	.	16b-\LL	.	.	.	4r	4r	.	16b-\LL	.	16dd\LL	.
.	.	(>16dd\	.	.	.	.	.	.	(>16dd\	.	(>16ff\	.
.	.	16cc\)	.	.	.	.	.	.	16cc\)	.	16ee-\)	.
.	.	16a\JJ	.	.	.	.	.	.	16a\JJ	.	16cc\JJ	.
=46	=46	=46	=46	=46	=46	=46	=46	=46	=46	=46	=46	=46
!	!	!	!	!	!LO:DY:a	!	!	!	!	!LO:HP:b:i:t=p.	!	!
*	*	*	*	*	*above	*	*	*	*	*	*	*
!	!	!	!LO:HP:b	!	!	!	!	!	!	!	!	!
8BB-\L	.	16b-\LL	<	16dd\LL	<	8d/L	8b-\L	<	16b-\LL	p	16dd\LL	.
*	*	*	*	*	*below	*	*	*	*	*	*	*
.	.	(>16dd\	.	16ff\	.	.	.	.	(>16dd\	.	(>16ff\	.
8F\	<	16cc\	.	16ee-\	.	8f/	8cc\	.	16cc\)	.	16ee-\)	.
.	.	16a\JJ)	.	16cc\JJ	.	.	.	.	16a\JJ	.	16cc\JJ	.
!	!	!	!	!	!	!	!	!	!	!LO:SIC:t=Cres:	!	!
8B-\	.	16b-\LL	.	(>16dd\LL	.	8d/	8b-\	.	16b-\LL	<	16dd\LL	<
.	.	(>16dd\	.	16ff\	.	.	.	.	(>16dd\	.	(>16ff\	.
8F\	.	16cc\	.	16ee-\	.	8f/	8cc\	.	16cc\	.	16ee-\	.
.	.	16a\JJ)	.	16cc\JJ)	.	.	.	.	16a\JJ)	.	16cc\JJ)	.
8B-\	.	16b-\LL	.	(>16dd\LL	.	8d/	8b-\	.	16b-\LL	.	16dd\LL	.
.	.	(>16dd\	.	16ff\	.	.	.	.	(>16dd\	.	(>16ff\	.
8F\J	.	16cc\	.	16ee-\	.	8f/J	8cc\J	.	16cc\	.	16ee-\	.
.	.	16a\JJ)	.	16cc\JJ)	.	.	.	.	16a\JJ)	.	16cc\JJ)	.
!LO:LB:g=original	!	!	!	!	!	!	!	!	!	!	!	!
=47	=47	=47	=47	=47	=47	=47	=47	=47	=47	=47	=47	=47
!LO:TX:a:t=P:problem:mixed beam	!	!	!	!	!	!	!	!	!	!LO:HP:b:i:t=f.	!	!LO:HP:b:i:t=f.
!	!LO:HP:b:i:t=f.	!	!LO:HP:b:i:t=f.	!	!LO:HP:b:i:t=f.	!	!	!	!	!LO:DY:b:rj	!	!
8.BB-/L	f	8.b-\L	f	8.dd\L	f	8.d/L	8.b-\L	.	8.b-\L	f	8.dd\L	f
!	!	!	!	!	!	!	!	!LO:HP:b:i:t=f.	!	!	!	!
16B-\Jk	.	16dd\Jk	.	16ff\Jk	.	16B-/Jk	16b-\Jk	f	16dd\Jk	.	16ff\Jk	.
!	!	!	!	!	!	!LO:SIC:s=4c	!	!	!	!	!	!
4BB-/	.	4f\ 4dd	.	4dd\ 4bb-	.	8B-/	4b-\	.	4dd\	.	4aa\	.
.	.	.	.	.	.	8ryy	.	.	.	.	.	.
8.r	.	8.r	.	8.r	.	8.r	8.r	.	8.r	.	8.r	.
!	!LO:DY:b:rj	!	!	!	!	!	!	!	!	!	!	!
!	!LO:HP:b:i:t=ff.	!	!	!	!LO:HP:b:i:t=ffr.	!	!	!	!	!	!	!
16BB-/	ff	16f\ 16dd	.	16dd\ 16bb-	ff	16B-/	16d/	.	16dd\	.	16bb-\	.
=48	=48	=48	=48	=48	=48	=48	=48	=48	=48	=48	=48	=48
4BB-/	.	4f\ 4dd	.	4dd\ 4bb-	.	4B-/	4d/	.	4dd\	.	4bb-\	.
4r	.	4r	.	4r	.	4r	4r	.	4r	.	4r	.
4r	.	4r;>	.	4r;>	.	4r	4r	.	4r;>	.	4r;>	.
!LO:TX:a:t=P:problem: Fine na pięciolinii za kreską zamykającym znakiem repetycji	!	!	!	!LO:LB:g=original	!	!LO:LB:g=original	!LO:LB:g=original	!	!LO:LB:g=original	!	!LO:LB:g=original	!
!LO:TX:i:a:t=Fine	!	!	!	!	!	!	!	!	!	!	!	!
!LO:LB:g=original	!	!LO:LB:g=original	!	!LO:TX:a:i:t=Fine	!	!	!	!	!	!	!	!
=49:|!	=49:|!	=49:|!	=49:|!	=49:|!	=49:|!	=49:|!	=49:|!	=49:|!	=49:|!	=49:|!	=49:|!	=49:|!
*clefF4	*	*clefG2	*	*clefG2	*	*	*	*	*	*	*	*
*k[b-e-]	*	*k[b-e-]	*	*k[b-e-]	*	*	*	*	*	*	*	*
*M4/4	*	*M4/4	*	*M4/4	*	*M4/4	*M4/4	*	*M4/4	*	*M4/4	*
*met(c)	*	*met(c)	*	*met(c)	*	*met(c)	*met(c)	*	*met(c)	*	*met(c)	*
!	!	!	!	!	!	!	!	!	!	!	!LO:TX:a:t=1	!
!	!	!LO:TX:a:t=P:problem: Recitativo na pięciolinii przed kluczem	!LO:HP:b:i:t=p.	!LO:TX:a:t=P:problem:Adagio na pięciolinii przed kluczem	!	!	!	!	!LO:TX:a:t=1	!	!	!
!	!	!	!	!LO:TX:a:i:t=dol&colon;	!	!	!	!	!LO:TX:a:t=P:problem: Recitativo na pięciolinii przed kluczem	!	!LO:TX:a:t=P:problem: oznaczenie tempa na pięciolinii przed kluczem	!
!LO:TX:a:i:B:t=adagio&colon;.	!	!LO:TX:a:i:t=adagio	!	!LO:TX:a:i:t=Recitativo&colon;	!	!	!	!	!LO:TX:a:i:t=adagio	!	!LO:TX:a:i:t=Recitativo	!
!LO:TX:a:t=P:problem:klucz przed znakami	!	!LO:TX:a:t=P:problem:klucz przed znakami	!	!LO:TX:a:t=P:problem:klucz przed znakami	!	!	!	!	!	!	!	!
!LO:TX:a:t=P:problem: Recitativo na pięciolinii przed kluczem	!	!	!	!	!	!	!	!	!	!	!	!
!LO:TX:a:i:t=Recitativo	!LO:HP:b:i:t=p.	!LO:TX:a:i:t=Recitativo	!	!LO:TX:a:i:t=Adagio	!	!LO:TX:a:i:t=Recitativo&colon;	!LO:TX:a:i:t=adagio	!	!LO:TX:a:i:t=Recitativo	!	!LO:TX:a:i:t=Adagio	!
2F\	p	2f/	p	8f/	.	2f/	2cc\	.	1r	.	1r	.
!	!	!	!	!LO:SIC:o=8.ee-	!	!	!	!	!	!	!	!
.	.	.	.	4ee-\	.	.	.	.	.	.	.	.
.	.	.	.	8cc\	.	.	.	.	.	.	.	.
2r	.	2r	.	(<16b-/LL	.	2r	2r	.	.	.	.	.
.	.	.	.	16a/	.	.	.	.	.	.	.	.
.	.	.	.	16g/	.	.	.	.	.	.	.	.
.	.	.	.	16f/JJ)	.	.	.	.	.	.	.	.
.	.	.	.	(<16en/LL	.	.	.	.	.	.	.	.
.	.	.	.	16f/	.	.	.	.	.	.	.	.
.	.	.	.	16g/	.	.	.	.	.	.	.	.
.	.	.	.	16f/JJ)	.	.	.	.	.	.	.	.
=50	=50	=50	=50	=50	=50	=50	=50	=50	=50	=50	=50	=50
4r	.	4f/	.	4f/	.	4F/	4f/	.	4r	.	4r	.
!	!	!	!	!LO:TX:o=8r	!LO:HP:b:i:t=for.	!	!	!	!	!	!	!
8.r	.	8.r	.	8.r	f	8.r	8.r	.	8.r	.	8.r	.
!	!	!	!LO:HP:b:i:t=f.	!	!	!	!	!	!	!	!	!
!LO:TX:a:t=P:problem: pojedyncze szesnastki z laską w dół mają chorągiewkę z lewej strony	!	!	!	!	!	!	!	!	!	!	!	!
16F\	.	16f/ 16cc	f	16cc\ 16aa	.	16f/	16cc\	.	16cc\	.	16aa\	.
4F\	.	4f/ 4cc	.	4cc\ 4aa	.	4f/	4cc\	.	4cc\	.	4aa\	.
4r	.	4r	.	4r	.	4r	4r	.	4r	.	4r	.
=51	=51	=51	=51	=51	=51	=51	=51	=51	=51	=51	=51	=51
!	!	!	!LO:DY:a	!	!LO:DY:a	!	!	!	!	!	!	!
!	!LO:HP:b:i:t=p.	!LO:TX:a:t=P:problem: p. na pięciolinii bezpośrednio nad nutą	!LO:HP:a:i:t=p.	!	!LO:HP:a:i:t=p.	!	!	!	!	!	!	!
2BB-/	p	2B-/	p	2B-/ 2f	p	2B-/	2b-\	.	(>4.dd\	.	4.ff\	.
!	!	!	!	!	!	!	!	!	!LO:TX:b:i:t=dol&colon;	!	!LO:TX:b:i:t=dol.	!
.	.	.	.	.	.	.	.	.	8b-\)	.	8dd\	.
2r	.	2r	.	2r	.	2r	2r	.	(>16cc\LL	.	16cc\LL	.
.	.	.	.	.	.	.	.	.	16b-\	.	(>16b-\	.
.	.	.	.	.	.	.	.	.	16a\	.	16a\	.
.	.	.	.	.	.	.	.	.	16b-\JJ)	.	16b-\JJ)	.
.	.	.	.	.	.	.	.	.	(>16cc\LL	.	(>16ee-\LL	.
.	.	.	.	.	.	.	.	.	16b-\	.	16dd\)	.
.	.	.	.	.	.	.	.	.	16ee-\)	.	16gg\	.
.	.	.	.	.	.	.	.	.	16dd\JJ	.	16ff\JJ	.
=52	=52	=52	=52	=52	=52	=52	=52	=52	=52	=52	=52	=52
4BB-/	.	4B-/	.	4B-/	.	4B-/	4b-\	.	4dd\	.	4ff\	.
8.r	.	8.r	.	8.r	.	8.r	8.r	.	8.r	.	8.r	.
!	!	!	!	!	!LO:HP:b:i:t=f.	!	!	!	!	!	!	!LO:HP:b:i:t=f.
16BB-/	.	16f\ 16dd	.	16dd\ 16bb-	f	16B-/	16b-\	.	16dd\	.	16bb-\	f
4BB-/	.	4f\ 4dd	.	4dd\ 4bb-	.	4B-/	4b-\	.	4dd\	.	4bb-\	.
4r	.	4r	.	4r	.	4r	4r	.	4r	.	4r	.
=53	=53	=53	=53	=53	=53	=53	=53	=53	=53	=53	=53	=53
!LO:TX:a:t=1	!	!LO:TX:a:t=1	!	!LO:TX:a:t=1	!	!LO:TX:a:t=1	!LO:TX:a:t=1	!	!	!	!	!
1r	.	1r	.	1r	.	1r	1r	.	8ee-\L|	.	(>8gg\L	.
.	.	.	.	.	.	.	.	.	8ee-\|	.	8gg\)	.
.	.	.	.	.	.	.	.	.	8dd\|	.	8ff\|	.
.	.	.	.	.	.	.	.	.	8dd\J|	.	8ff\J|	.
.	.	.	.	.	.	.	.	.	8cc\L|	.	8ee-\L|	.
.	.	.	.	.	.	.	.	.	8cc\|	.	(>8ee-\	.
.	.	.	.	.	.	.	.	.	8b-\|	.	8dd\)	.
.	.	.	.	.	.	.	.	.	8b-\J|	.	8dd\J|	.
=54	=54	=54	=54	=54	=54	=54	=54	=54	=54	=54	=54	=54
!	!LO:HP:b:i:t=p.	!	!	!	!LO:HP:b:i:t=p.	!	!	!	!	!	!	!
2F;>\	p	2f;>/	.	2f;>/	p	2f;/	2cc;>\	.	2a;>\	.	2cc;>\	.
4r	.	4r	.	4r	.	4r	4r	.	4r	.	4r	.
8.r	.	8.r	.	8.r	.	8.r	8.r	.	8.r	.	8.r	.
!	!	!	!LO:DY:a	!	!	!LO:HP:b:i:t=f.	!	!	!	!	!	!
!	!LO:HP:b:i:t=f.	!	!LO:HP:a:i:t=fr	!	!LO:HP:b:i:t=f.	!	!	!	!	!	!	!
16F\	f	16f\ 16cc	f	16cc\ 16aa	f	16f/	16cc\	.	16cc\	.	16aa\	.
!LO:LB:g=original	!	!	!	!	!	!	!	!	!LO:LB:g=original	!	!LO:LB:g=original	!
=55	=55	=55	=55	=55	=55	=55	=55	=55	=55	=55	=55	=55
4F\	.	4f\ 4cc	.	4cc\ 4aa	.	4f/	4cc\	.	4cc\	.	4aa\	.
4r	.	4r	.	4r	.	4r	4r	.	4r	.	4r	.
2r	.	2r	.	2r	.	2r	2r	.	2r	.	2r	.
!	!	!LO:LB:g=original	!	!LO:LB:g=original	!	!	!	!	!	!	!	!
=56	=56	=56	=56	=56	=56	=56	=56	=56	=56	=56	=56	=56
!	!LO:HP:b:i:t=p.	!LO:TX:a:t=2	!	!LO:TX:a:t=2	!	!	!	!	!	!	!	!
!	!	!LO:N:vis=0	!	!LO:N:vis=0	!	!	!	!	!	!	!	!
2BB-/	p	0r	.	0r	.	2B-/	2b-\	.	2dd\	.	2bb-\	.
2r	.	.	.	.	.	2r	2r	.	8ff\L|	.	8bb-\L|	.
.	.	.	.	.	.	.	.	.	8ff\|	.	8bb-\|	.
.	.	.	.	.	.	.	.	.	8ff\|	.	8bb-\|	.
.	.	.	.	.	.	.	.	.	8ff\J|	.	8bb-\J|	.
=57	=57	=57	=57	=57	=57	=57	=57	=57	=57	=57	=57	=57
2r	.	.	.	.	.	2r	2r	.	8ee-\L|	.	8aa\L|	.
.	.	.	.	.	.	.	.	.	8ee-\|	.	8aa\|	.
.	.	.	.	.	.	.	.	.	8dd\|	.	8gg\|	.
.	.	.	.	.	.	.	.	.	8dd\J|	.	8gg\J|	.
2F\	.	.	.	.	.	2f/	2cc\	.	2cc\	.	2aa\	.
!	!	!	!	!	!LO:LB:g=original	!LO:LB:g=original	!LO:LB:g=original	!	!	!	!	!
=58	=58	=58	=58	=58	=58	=58	=58	=58	=58	=58	=58	=58
!	!	!LO:TX:a:i:t=dolce&colon;	!	!	!	!	!	!	!	!	!	!
4BB-/	.	(<4.b-/	.	(>4.bb-\	.	4B-/	4b-\	.	4dd\	.	4bb-\	.
4r	.	.	.	.	.	4r	4r	.	4r	.	4r	.
.	.	8f/)	.	8ff\)	.	.	.	.	.	.	.	.
2r	.	16en/LL	.	16een\LL	.	2r	2r	.	2r	.	2r	.
.	.	(<16f/	.	16ff\	.	.	.	.	.	.	.	.
.	.	16g/	.	16gg\	.	.	.	.	.	.	.	.
.	.	16f/JJ)	.	16ff\JJ	.	.	.	.	.	.	.	.
.	.	(<16e-X/LL	.	(>16ee-X\LL	.	.	.	.	.	.	.	.
.	.	16d/	.	16dd\	.	.	.	.	.	.	.	.
.	.	16c/	.	16cc\	.	.	.	.	.	.	.	.
.	.	16B-/JJ)	.	16b-\JJ)	.	.	.	.	.	.	.	.
=59	=59	=59	=59	=59	=59	=59	=59	=59	=59	=59	=59	=59
!LO:TX:a:t=1	!	!	!	!	!	!LO:TX:a:t=1	!LO:TX:a:t=1	!	!	!	!LO:TX:a:t=2	!
1r	.	(<16Bn/LL	.	(>16bn\LL	.	1r	1r	.	0r;>	.	0r;>	.
.	.	16c/)	.	16cc\	.	.	.	.	.	.	.	.
.	.	(<16G/	.	16g\	.	.	.	.	.	.	.	.
.	.	16c/JJ	.	16cc\JJ)	.	.	.	.	.	.	.	.
.	.	16B/LL)	.	(>16b\LL	.	.	.	.	.	.	.	.
.	.	16c/	.	16cc\	.	.	.	.	.	.	.	.
.	.	(<16G/	.	16g\	.	.	.	.	.	.	.	.
.	.	16c/JJ	.	16cc\JJ)	.	.	.	.	.	.	.	.
.	.	16Bn/LL)	.	(>16b\LL	.	.	.	.	.	.	.	.
.	.	16c/	.	16cc\	.	.	.	.	.	.	.	.
.	.	(<16G/	.	16g\	.	.	.	.	.	.	.	.
.	.	16c/JJ)	.	16cc\JJ)	.	.	.	.	.	.	.	.
.	.	(<16B-X/LL	.	(>16b-X\LL	.	.	.	.	.	.	.	.
.	.	16A/)	.	16a\	.	.	.	.	.	.	.	.
.	.	(<16B-/	.	16g\	.	.	.	.	.	.	.	.
.	.	16A/JJ)	.	16f\JJ)	.	.	.	.	.	.	.	.
=60	=60	=60	=60	=60	=60	=60	=60	=60	=60	=60	=60	=60
2F;>\	.	16G/LL	.	16en/LL	.	4r	4r	.	.	.	.	.
.	.	(<16A/	.	16f/	.	.	.	.	.	.	.	.
.	.	16B-/	.	16g/	.	.	.	.	.	.	.	.
.	.	16A/JJ)	.	16f/JJ	.	.	.	.	.	.	.	.
.	.	2A;>/	.	2f;>/	.	4f/	4f;>/	.	.	.	.	.
2r	.	.	.	.	.	2r	2r	.	.	.	.	.
.	.	4r	.	4r	.	.	.	.	.	.	.	.
!LO:TX:a:t=P:problem: Da Capo al Fine na pięciolinii za końcową kreską taktową	!	!LO:TX:a:t=P:problem: Da Capo al Fine na pięciolinii za końcową kreską taktową	!	!LO:TX:a:t=P:problem: Da Capo al Fine na pięciolinii za końcową kreską taktową	!	!LO:TX:a:t=P:problem: Da Capo al Fine na pięciolinii za końcową kreską taktową	!LO:TX:a:t=P:problem: Da Capo al Fine na pięciolinii za końcową kreską taktową	!	!LO:TX:a:t=P:problem: Da Capo al Fine na pięciolinii za końcową kreską taktową	!	!LO:TX:a:t=P:problem: Da Capo al Fine na pięciolinii za końcową kreską taktową	!
!LO:TX:i:a:t=Da Capo al\n Fine&colon;.	!	!LO:TX:a:i:t=Da Capo\nal Fine	!	!LO:TX:a:i:t=Da Capo al Fine	!	!LO:TX:a:i:t=Da Capo al Fine	!LO:TX:a:i:t=Da Capo al Fine	!	!LO:TX:a:i:t=Da Capo al Fine	!	!LO:TX:a:i:t=Da Capo al Fine	!
=:|!	=:|!	=:|!	=:|!	=:|!	=:|!	=:|!	=:|!	=:|!	=:|!	=:|!	=:|!	=:|!
*-	*-	*-	*-	*-	*-	*-	*-	*-	*-	*-	*-	*-
!!!system-decoration: [(s1,s2)][([(s3,s4)])][(s5,s6,s7)]
!!!RDF**kern: > = above
!!!RDF**kern: < = below
!!!RDF**dynam: < = "Cres:", fontstyle = "italic"
!!!EED: Mateusz Mrugas
!!!EST: 2020-11-20
!!!ENC: Kamil Watkowski
!!!END: 2020-04-24
!!!RDF**kern: | = vertical stroke
